icon-themes/sifr_svg/cmd/lc_graphicfiltersmooth.svg

<svg viewBox="0 0 24 24" xmlns="http://www.w3.org/2000/svg"><path d="m9.5 5c-.831 0-1.5.669-1.5 1.5v5.40625c-.036365.01544-.073474.0291-.109375.04492-.2183696-.5576-.7537913-.95117-1.390625-.95117-.831 0-1.5.669-1.5 1.5v3c0 2.485281 3.3578645 4.5 7.5 4.5 4.142136 0 7.5-2.014719 7.5-4.5v-3c0-.831-.669-1.5-1.5-1.5-.637833 0-1.17293.396079-1.390625.955078-.03588-.0168-.07298-.032428-.109375-.048828v-.90625c0-.831-.669-1.5-1.5-1.5s-1.5.669-1.5 1.5v-1.5c.000006-.831-.669-1.5-1.5-1.5s-1.5.669-1.5 1.5v-3c0-.831-.669-1.5-1.5-1.5z" fill="#555753"/></svg>

<svg xmlns="http://www.w3.org/2000/svg" viewBox="0 0 24 24">
  <path
     style="fill:#555753"
     d="M 9.5,5 C 8.669,5 8,5.669 8,6.5 v 5.40625 C 7.963635,11.92169 7.926526,11.93535 7.890625,11.95117 7.6722554,11.39357 7.1368337,11 6.5,11 5.669,11 5,11.669 5,12.5 v 3 c 0,2.485281 3.3578645,4.5 7.5,4.5 4.142136,0 7.5,-2.014719 7.5,-4.5 v -3 C 20,11.669 19.331,11 18.5,11 17.862167,11 17.32707,11.396079 17.109375,11.955078 17.073495,11.938278 17.036395,11.92265 17,11.90625 V 11 C 17,10.169 16.331,9.5 15.5,9.5 14.669,9.5 14,10.169 14,11 V 9.5 C 14.000006,8.669 13.331,8 12.5,8 11.669,8 11,8.669 11,9.5 v -3 C 11,5.669 10.331,5 9.5,5 Z"
     />
</svg>
